Obsidian-SemiLight/actions/22s/timeline-extract.svg

<svg viewBox="0 0 22 22" xmlns="http://www.w3.org/2000/svg"><path d="m3 11h4v4h-4z" fill="#4d4d4d"/><path d="m17 11v-2l-4 4 4 4v-2h2v-4zm-11-1h1v1h-1z" fill="#4d4d4d"/><path d="m8.707 10.5-.707.707 1.793 1.793-1.793 1.793.707.707 1.793-1.793 1.793 1.793.707-.707-1.793-1.793 1.793-1.793-.707-.707-1.793 1.793z" fill="#d24d57"/></svg>

<svg xmlns="http://www.w3.org/2000/svg" viewBox="0 0 22 22">
  <defs id="defs3051">
    <style type="text/css" id="current-color-scheme">
      .ColorScheme-Text {
        color:#4d4d4d;
      }
      </style>
  </defs>
 <path 
     style="fill:currentColor;fill-opacity:1;stroke:none" 
     d="M3 11H7V15H3z"
	 class="ColorScheme-Text"
     />
 <path 
     style="fill:currentColor;fill-opacity:1;stroke:none" 
     d="M17 11l0-2-4 4 4 4 0-2 2 0 0-4zM6 10H7V11H6z"
     class="ColorScheme-Text"
     />
 <path 
     style="fill:#d24d57"
     d="M 8.707,10.5 8,11.207 9.793,13 8,14.793 8.707,15.5 10.5,13.707 12.293,15.5 13,14.793 11.207,13 13,11.207 12.293,10.5 10.5,12.293 8.707,10.5 Z"
	 />
</svg>
